addons/godot-flexbox/assets/light/AlignItemsBaselineRowIcon.svg

<svg xmlns="http://www.w3.org/2000/svg" width="16" height="16" fill="none" data-wf-icon="AlignItemsBaselineRowIcon" viewBox="0 0 24 24"><path fill="#474747" fill-rule="evenodd" d="M12 4.5h6v6h6V12h-6v3h-6v-3h-1.5v6h-6v-6H0v-1.5h4.5v-6h6v6H12v-6Zm1.5 6h3V6h-3v4.5Zm-4.5 0V6H6v4.5h3Z" clip-rule="evenodd"/></svg>

<svg data-wf-icon="AlignItemsBaselineRowIcon" width="16" height="16" viewBox="0 0 24 24" fill="none" xmlns="http://www.w3.org/2000/svg"><path fill-rule="evenodd" clip-rule="evenodd" d="M12 4.5H18V10.5H24V12H18V15H12V12H10.5V18H4.5V12H0V10.5H4.5V4.5H10.5V10.5H12V4.5ZM13.5 10.5H16.5V6H13.5V10.5ZM9 10.5V6H6V10.5H9Z" fill="#474747"></path></svg>
